dist/images/ignore/icon-feedback.svg

<?xml version="1.0" encoding="UTF-8" standalone="no"?>
<svg width="16px" height="16px" viewBox="0 0 16 16" version="1.1" xmlns="http://www.w3.org/2000/svg" xmlns:xlink="http://www.w3.org/1999/xlink" xmlns:sketch="http://www.bohemiancoding.com/sketch/ns">
    <!-- Generator: Sketch 3.3.3 (12072) - http://www.bohemiancoding.com/sketch -->
    <title>icon-feedback</title>
    <desc>Created with Sketch.</desc>
    <defs></defs>
    <g id="General" stroke="none" stroke-width="1" fill="none" fill-rule="evenodd" sketch:type="MSPage">
        <g id="icon-feedback" sketch:type="MSArtboardGroup" transform="translate(-56.000000, -56.000000)" fill="#57626C">
            <g sketch:type="MSLayerGroup" transform="translate(56.000000, 56.000000)" id="Group">
                <g sketch:type="MSShapeGroup">
                    <path d="M7.14533333,12.374 L11.6653333,15.9146667 C11.7393333,15.9713333 11.7846667,16 11.8286667,16 C11.954,16 11.9913333,15.9153333 11.9913333,15.7746667 L11.9913333,12.426 C11.9913333,12.1893333 12.1466667,12.0013333 12.3566667,12.0013333 L14,12 C15.4793333,12 16,11.2706667 16,10.6666667 L16,1.33333333 C16,0.666666667 15.5013333,0 13.9906667,0 L1.99266667,0 C0.534666667,0 0,0.646 0,1.33333333 L0,10.6666667 C0,11.3126667 0.552,12 2,12 L6,12 C6,12 6.83666667,12.0233333 7.14533333,12.374 L7.14533333,12.374 Z" id="Shape"></path>
                </g>
            </g>
        </g>
    </g>
</svg>

<svg width="16" height="16" viewBox="0 0 16 16" xmlns="http://www.w3.org/2000/svg"><title>icon-feedback</title><path d="M7.145 12.374l4.52 3.54c.074.057.12.086.164.086.124 0 .16-.085.16-.225v-3.35c0-.236.157-.424.367-.424H14c1.48 0 2-.73 2-1.333V1.333C16 .667 15.5 0 13.99 0H1.994C.535 0 0 .646 0 1.333v9.334C0 11.313.552 12 2 12h4s.837.023 1.145.374z" fill="#57626C" fill-rule="evenodd"/></svg>
